apps/www/public/images/logos/publicity/fixed-width/mozilla.svg

<svg width="180" height="60" viewBox="0 0 180 60" fill="none" xmlns="http://www.w3.org/2000/svg">
<path d="M136.536 35.4933C136.333 35.5505 136.162 35.5817 135.99 35.5817C135.382 35.5817 135.097 35.3217 135.097 34.5735V28.9246C135.097 25.9576 132.732 24.513 129.936 24.513C127.8 24.513 126.653 24.773 124.371 25.6924L123.862 28.6857L126.829 29.0026L127.25 27.5371C127.858 27.2203 128.461 27.1631 129.24 27.1631C131.345 27.1631 131.376 28.7481 131.376 30.0732V30.5041C130.711 30.416 129.962 30.39 129.24 30.39C126.273 30.39 123.186 31.1382 123.186 34.3391C123.186 37.0464 125.317 38.0598 127.193 38.0598C129.297 38.0598 130.622 36.792 131.371 35.4669C131.542 37.0516 132.493 38.0598 134.224 38.0598C135.029 38.0598 135.865 37.8313 136.556 37.4517L136.536 35.4933ZM128.554 35.4101C127.432 35.4101 127.026 34.7452 127.026 33.9082C127.026 32.4948 128.18 32.1207 129.505 32.1207C130.108 32.1207 130.773 32.2091 131.381 32.2923C131.293 34.4591 129.879 35.4101 128.554 35.4101ZM123.561 17.9398L117.938 37.7745H114.275L119.897 17.9402L123.561 17.9398ZM116.01 17.9398L110.388 37.7745H106.73L112.352 17.9402L116.01 17.9398ZM100.4 24.7734H104.293V29.4394H100.4V24.7734ZM100.4 33.1029H104.293V37.7745H100.4V33.1029ZM94.7366 32.9313L97.6775 33.2173L96.8722 37.7745H85.513L85.1389 35.8154L92.289 27.5999H88.2255L87.6489 29.6163L84.9673 29.325L85.4298 24.7682H96.8462L97.1374 26.727L89.9246 34.9476H94.1337L94.7366 32.9313ZM76.1077 24.5137C71.4361 24.5137 69.1293 27.6571 69.1293 31.461C69.1293 35.6129 71.8986 38.0602 75.9049 38.0602C80.0568 38.0602 83.0553 35.4361 83.0553 31.2845C83.0553 27.6519 80.7741 24.5137 76.1077 24.5137ZM76.0193 35.2073C74.0033 35.2073 72.964 33.477 72.964 31.227C72.964 28.7745 74.1434 27.3663 76.0509 27.3663C77.8068 27.3663 79.2203 28.5457 79.2203 31.1701C79.2203 33.6486 77.9524 35.2073 76.0193 35.2073ZM65.7827 34.9476H67.513V37.7745H62.062V30.4528C62.062 28.2028 61.3139 27.3399 59.8432 27.3399C58.0557 27.3399 57.3336 28.6081 57.3336 30.4268V34.9476H59.0639V37.7745H53.6181V30.4528C53.6181 28.2028 52.8696 27.3399 51.3993 27.3399C49.6118 27.3399 48.8893 28.6081 48.8893 30.4268V34.9476H51.3681V37.7745H43.4435V34.9476H45.1742V27.5947H43.4435V24.7678H48.8893V26.727C49.669 25.3451 51.0253 24.5082 52.8388 24.5082C54.7147 24.5082 56.4398 25.4019 57.0787 27.3039C57.8013 25.5735 59.2715 24.5082 61.3191 24.5082C63.6519 24.5082 65.7879 25.9216 65.7879 29.003V34.9476H65.7827Z" fill="#7E7E7E"/>
</svg>

<svg xmlns="http://www.w3.org/2000/svg" width="180" height="60" fill="none" viewBox="0 0 180 60"><path fill="#7e7e7e" d="M136.536 35.493a2 2 0 0 1-.546.089c-.608 0-.893-.26-.893-1.008v-5.65c0-2.966-2.365-4.411-5.161-4.411-2.136 0-3.283.26-5.565 1.18l-.509 2.993 2.967.317.421-1.466c.608-.317 1.211-.374 1.99-.374 2.105 0 2.136 1.585 2.136 2.91v.431c-.665-.088-1.414-.114-2.136-.114-2.967 0-6.054.748-6.054 3.95 0 2.706 2.131 3.72 4.007 3.72 2.104 0 3.429-1.268 4.178-2.593.171 1.585 1.122 2.593 2.853 2.593.805 0 1.641-.229 2.332-.608zm-7.982-.083c-1.122 0-1.528-.665-1.528-1.502 0-1.413 1.154-1.787 2.479-1.787.603 0 1.268.088 1.876.171-.088 2.167-1.502 3.118-2.827 3.118m-4.993-17.47-5.623 19.835h-3.663l5.622-19.835zm-7.551 0-5.622 19.835h-3.658l5.622-19.835zm-15.61 6.833h3.893v4.666H100.4zm0 8.33h3.893v4.672H100.4zm-5.663-.172 2.94.286-.805 4.558H85.513l-.374-1.96 7.15-8.215h-4.064l-.576 2.016-2.682-.291.463-4.557h11.416l.291 1.959-7.212 8.22h4.209zm-18.63-8.417c-4.67 0-6.978 3.143-6.978 6.947 0 4.152 2.77 6.6 6.776 6.6 4.152 0 7.15-2.625 7.15-6.776 0-3.633-2.28-6.771-6.947-6.771m-.088 10.693c-2.016 0-3.055-1.73-3.055-3.98 0-2.453 1.18-3.86 3.087-3.86 1.756 0 3.17 1.179 3.17 3.803 0 2.479-1.269 4.037-3.202 4.037m-10.236-.26h1.73v2.828h-5.451v-7.322c0-2.25-.748-3.113-2.219-3.113-1.787 0-2.51 1.268-2.51 3.087v4.52h1.73v2.828h-5.445v-7.322c0-2.25-.748-3.113-2.219-3.113-1.787 0-2.51 1.268-2.51 3.087v4.52h2.48v2.828h-7.925v-2.827h1.73v-7.353h-1.73v-2.827h5.445v1.959c.78-1.382 2.136-2.219 3.95-2.219 1.876 0 3.6.894 4.24 2.796.722-1.73 2.193-2.796 4.24-2.796 2.333 0 4.469 1.414 4.469 4.495v5.945z"/></svg>
